X: 12
T: Cooley's Reel
D: Frankie Gavin and Paul Brock, "Tribute to Joe Cooley"
D: Tony McMahon's album 
D: Noel Hill's album
D: Bothy Band, the BBC live album
M: C|
L: 1/8
K: EDor
   B2 \
| "Em"E2BA B4   | B2AB dBAG | "D"F{E}DAD BDAD | FDAD   dBAF  |
| "Em"E2BA B4   | B2AB defg | "D"a{g}fge dBAF | DEFD "Em"E2 :|
|: gf \
| "Em"eBB2 eBgB | eBB2 gedB | "D"A2FA dAFB | A2FA   defd  |
| "Em"eBB2 eBgB | eBB2 defg | "D"afge dBAF | DEFD "Em"E2 :|
%%sep 1 1 500
